X:1
T: Little Ingrid's Waltz
N:
C:
S:
A:
O:
R:
M:3/4
K:D
I:speed 150
%W: A
% voice 1 (1 lines, 34 notes)
K:D
M:3/4
L:1/16
F2 G2 |A4 f2 e2 d2 c2 |d4 B4 G4 |A4 A2 B2 A2 F2 |D4 A4 A2 d2 |c4 c2 d2 e2 f2 |g4 e4 c4 |d4 f4 d4 |A6 G2 F2 G2 |
%W:
% voice 1 (1 lines, 32 notes)
A4 f2 e2 d2 c2 |d4 B4 G4 |A4 A2 B2 A2 F2 |D4 A4 A2 d2 |c4 c2 d2 e2 f2 |g4 e4 c4 |d6 e2 d2 c2 |d8 d2 c2 |
%W: B
% voice 1 (1 lines, 29 notes)
B4 G2 B2 G2 B2 |d4 e2 d2 c2 B2 |A4 d4 e4 |f8 f2 a2 |g4 e4 c4 |A4 G4 E4 |D4 F4 F2 G2 |A8 d2 c2 |
%W:
% voice 1 (1 lines, 32 notes)
B4 G2 B2 G2 B2 |d4 e2 d2 c2 B2 |A4 d4 e4 |f8 e2 f2 |g2 a2 g2 f2 e2 d2 |c2 d2 c2 A2 B2 c2 |d4 f4 e4 |d8 ||
